X:246
T:Malbro'. EHo.246
A:England; East Yorkshire
T:We Won't Go Home Till the Morning,aka. EHo.246
T:For He's A Jolly Good Fellow,aka. EHo.246
M:6/8
L:1/8
Q:3/8=100
B:Edward Holmes MS, c1846, Beverley, Yorkshire.
O:
Z:Village Music Project 2018, Jake Wade. Beverley, East Yorks
K:A
(A/B/) | c2c cBc | (d3c2)c | B2B BAB | (c3A2)B |
c2c cBc | (d3c2)e | c2A B2G | A3-A2 :|
(c/d/) | e2c f2f | e3-e2 (c/d/) | e2e f2f | e3-"Da Capo"e2 |]

